X:1
T:Anglesey, 10.9.10.9 D
T:Anglesey, 10.9.10.9 D
T:Adam Geibel, 1894
T:Public Domain Courtesy of the Cyber Hymnal™
C:Adam Geibel, 1894
Z:Public Domain
Z:Courtesy of the Cyber Hymnal™
%%score ( 1 2 ) ( 3 4 )
L:1/8
Q:1/4=110
M:9/8
K:A
V:1 treble 
V:2 treble 
V:3 bass 
V:4 bass 
V:1
 [CE][^B,^D][CE] | [Ec]3 [EB]3 [FA][EG][DF] | [DF]3 [CE]3 E[EA][Ec] | [Ge]3 [Gd]3 [Ed][Ec][EB] | %4
 [^D^B]3 [Ec]2 z [CE][^B,D][CE] | [Ec]3 [DB]3 [CA][Ec][=Ge] | [=Ge]3 [Fd]3 [Fd][FA][=FB] | %7
 [Ed]3 [Ec]3 [^DB][DF][=DG] | [CA]3- [CA]2 z [Cc][Cc][Cc] | [Cc]3 [^EG]3 [EG][FA][GB] | %10
 [GB]3 [FA]3 [FA][FA][FA] | [Fc]3 [FB]3 [AB][Ac][A^d] | [Ge]3- [Ge]2 z [Ge][Ae][Be] | %13
 [Af]3 [Ae]3 [=Ge][Gd][Gc] | [Fe]3 [Fd]3 [Fd][FA][=FB] | [Ed]3 [Ec]3 [^DB][DF][=DG] | %16
 [CA]3- [CA]2 z |] %17
V:2
 x3 | x9 | x6 E x2 | x9 | x9 | x9 | x9 | x9 | x9 | x9 | x9 | x9 | x9 | x9 | x9 | x9 | x6 |] %17
V:3
 [A,,A,][A,,A,][A,,A,] | [A,,A,]3 [C,A,]3 [D,A,][D,A,][D,A,] | [A,,A,]3 [A,,A,]3 [A,C][A,C]A, | %3
 [E,B,]3 [E,B,]3 [E,G,][E,G,][E,G,] | [A,,F,]3 [A,,E,]2 z [A,,A,][A,,A,][A,,A,] | %5
 [A,,A,]3 [A,,A,]3 [A,,A,][A,,A,][C,A,] | [D,A,]3 [D,A,]3 [D,A,][D,A,][D,A,] | %7
 [E,A,]3 [E,A,]3 [B,,F,][B,,B,][E,B,] | [A,,A,]3- [A,,A,]2 z CCC | C3 [C,C]3 [C,C][C,C][C,C] | %10
 [F,C]3 [F,C]3 [F,C][F,C][E,C] | [^D,B,]3 [D,B,]3 [B,,^D][B,,E][B,F] | %12
 [E,E]3- [E,E]2 z [E,D][F,D][G,D] | [A,C]3 [A,C]3 [A,C][A,D][A,E] | %14
 [D,D]3 [D,A,]3 [D,A,][D,A,][D,A,] | [E,A,]3 [F,A,]3 [B,,F,][B,,B,][E,B,] | [A,,A,]3- [A,,A,]2 z |] %17
V:4
 x3 | x9 | x8 A, | x9 | x9 | x9 | x9 | x9 | x6 CCC | C3 x6 | x9 | x9 | x9 | x9 | x9 | x9 | x6 |] %17

